X: 27571
T: Monferrina
R: jig
M: 6/8
K: Gmajor
GBd|:g2g g2g|g3-gfg|a2g f2e|d3-d2g|gfe dcB|
cAc A2d|fdB dcA|GAd G3-|G3-G3|z3 GBd:|
|:GBd GBd|dcA ABd|ABd ABd|dBA GBd|
GBd GBd|dcA Add|fdB dcA|GAd G3-|G6:z3 GBd:|

